svgs/regular/radar.svg

<svg xmlns="http://www.w3.org/2000/svg" viewBox="0 0 512 512"><!--! Font Awesome Pro 6.3.0 by @fontawesome - https://fontawesome.com License - https://fontawesome.com/license (Commercial License) Copyright 2023 Fonticons, Inc. --><path d="M316.4 161.7C299 150.5 278.2 144 256 144c-61.9 0-112 50.1-112 112s50.1 112 112 112s112-50.1 112-112h48c0 78.2-56.1 143.3-130.3 157.2c-7.3-8.1-17.9-13.2-29.7-13.2s-22.4 5.1-29.7 13.2c-64.5-12.1-115.4-63-127.5-127.5c8.1-7.3 13.2-17.9 13.2-29.7s-5.1-22.4-13.2-29.7C112.7 152.1 177.8 96 256 96c35.5 0 68.3 11.6 94.9 31.2l34.2-34.2C349.7 64.8 304.8 48 256 48C152.7 48 66.9 123.4 50.7 222.1C39.5 229.2 32 241.7 32 256s7.5 26.8 18.7 33.9c14.4 87.7 83.6 157 171.4 171.4c7.1 11.3 19.6 18.7 33.9 18.7s26.8-7.5 33.9-18.7C388.6 445.1 464 359.3 464 256h48c0 141.4-114.6 256-256 256S0 397.4 0 256S114.6 0 256 0c62.1 0 118.9 22.1 163.3 58.8L463 15c9.4-9.4 24.6-9.4 33.9 0s9.4 24.6 0 33.9l-182 182c3.3 7.7 5.1 16.1 5.1 25c0 35.3-28.7 64-64 64s-64-28.7-64-64s28.7-64 64-64c8.9 0 17.3 1.8 25 5.1l35.4-35.4z"/></svg>

<svg xmlns="http://www.w3.org/2000/svg" viewBox="0 0 512 512"><!--! Font Awesome Pro 6.2.0 by @fontawesome - https://fontawesome.com License - https://fontawesome.com/license (Commercial License) Copyright 2022 Fonticons, Inc. --><path d="M316.4 161.7C298.1 150.5 278.2 144 256 144C194.1 144 144 194.1 144 256C144 317.9 194.1 368 256 368C317.9 368 368 317.9 368 256H416C416 334.2 359.9 399.3 285.7 413.2C278.4 405.1 267.8 400 256 400C244.2 400 233.6 405.1 226.3 413.2C161.7 401.1 110.9 350.3 98.76 285.7C106.9 278.4 112 267.8 112 256C112 244.2 106.9 233.6 98.76 226.3C112.7 152.1 177.8 96 256 96C291.5 96 324.3 107.6 350.9 127.2L385.1 92.93C349.7 64.8 304.8 48 256 48C152.7 48 66.93 123.4 50.75 222.1C39.49 229.2 32 241.7 32 256C32 270.3 39.49 282.8 50.75 289.9C65.12 377.6 134.4 446.9 222.1 461.3C229.2 472.5 241.7 480 256 480C270.3 480 282.8 472.5 289.9 461.3C388.6 445.1 464 359.3 464 256H512C512 397.4 397.4 512 256 512C114.6 512 0 397.4 0 256C0 114.6 114.6 0 256 0C318.1 0 374.9 22.08 419.3 58.8L463 15.03C472.4 5.657 487.6 5.657 496.1 15.03C506.3 24.4 506.3 39.6 496.1 48.97L314.9 231C318.2 238.7 320 247.1 320 256C320 291.3 291.3 320 256 320C220.7 320 192 291.3 192 256C192 220.7 220.7 192 256 192C264.9 192 273.3 193.8 280.1 197.1L316.4 161.7z"/></svg>
